public/assets/img/casestudies/borgatta/brand-sm.svg

<svg fill="none" height="124" viewBox="0 0 190 124" width="190" xmlns="http://www.w3.org/2000/svg" xmlns:xlink="http://www.w3.org/1999/xlink"><clipPath id="a"><path d="m0 86.04h189.09v37.7397h-189.09z"/></clipPath><path clip-rule="evenodd" d="m43.457 11.542v2.3926c0 2.9637 2.4213 7.1101 6.5199 8.5239 0 0 .0305.0119.0872.034-.0567.0222-.0872.034-.0872.034-4.0986 1.4139-6.5199 5.5739-6.5199 8.5239v2.3927c0 7.749 6.3711 11.542 12.607 11.542 3.7555 0 7.4105-1.5288 9.8137-4.5132 2.403 2.9932 6.0633 4.5265 9.8244 4.5265 6.2359 0 12.607-3.8065 12.607-11.5419v-2.3927c0-2.9501-2.4213-7.1101-6.5064-8.5239-.0013-.0013-.0449-.019-.1241-.0505.0735-.0288.1133-.0444.1133-.0444 4.0986-1.4139 6.5063-5.5603 6.5063-8.524v-2.379c.0136-7.73547-6.3575-11.542-12.5934-11.542-3.7721 0-7.4182 1.53158-9.8204 4.52146-2.4022-2.98988-6.0483-4.52146-9.8204-4.52146-6.2359 0-12.607 3.80653-12.607 11.542zm25.2274 1.8352s.0064-.1799 0-.4932v-.2273c.3247-4.64939 3.6928-6.87893 7.0881-6.87893 3.4358 0 6.9392 1.97124 6.9392 5.76423v2.3926c0 3.0996-3.1382 5.5059-7.2909 6.0497 0 0-.0001.0049-.0002.0144-.0008-.0003-.0017-.0007-.0025-.001-.0289 0-.027 1.423-.0189 2.7512-.0052 1.1178-.0038 2.1648.0187 2.2347.0001.0111.0002.0169.0002.0169 4.1391.5574 7.2909 2.9501 7.2909 6.0497v2.3927c0 3.8065-3.5034 5.7778-6.9392 5.7778-3.3485 0-6.6969-2.1686-7.1-6.6882.0269-.5741.0146-.9247.0146-.9247zm-5.5866-.8999c-.3858-4.52735-3.7502-6.69953-7.1015-6.69953-3.4358 0-6.9392 1.95765-6.9392 5.76423v2.4062c0 3.0996 3.1382 5.5059 7.2909 6.0497.0271-.0068.0271 1.249.0203 2.504.0068 1.2567.0068 2.5125-.0203 2.4989-4.1527.5438-7.2909 2.95-7.2909 6.0496v2.3927c0 3.8065 3.5034 5.7778 6.9392 5.7778 3.3953 0 6.7634-2.2024 7.0881-6.8518v-.1415c-.0106-.3827-.0027-.6064-.0027-.6064l.0027.0003v-18.2443-.4894c.0022-.1185.0064-.2561.0134-.4105zm40.8912-12.4495672c-6.0736 0-11.6196 3.2763372-11.6196 10.4951672v23.7229c0 7.2052 5.7353 10.6854 11.7416 10.6854 5.748 0 11.687-3.4666 11.687-10.6854v-8.1977c0-7.0829-5.682-10.3592-11.687-10.3592-2.016 0-5.5464 1.2507-6.6556 3.8745l.0677-9.0541c0-3.48026 3.1379-5.24758 6.4659-5.24758 1.961 0 4.044.66614 6.33 2.82771l.974-.97883h.068c.046-.04339.088-.08395.127-.12153.132-.12725.228-.22024.333-.27271v-.00006c.061-.06124.166-.16657.285-.23654-.006.00707.005.0011.04-.0217-.014.00673-.027.01401-.04.0217.021-.02529.264-.21759.5-.40349v-.0001l.002-.00122c.09-.07144.18-.14188.254-.20147l.014-.01089c.333-.26799.658-.52893 1.299-1.23983-3.72-3.874505-6.791-4.5950272-10.186-4.5950272zm.122 20.8679672c3.327 0 6.465 1.6993 6.465 5.1796v8.2112c-.135 3.5483-3.395 5.3836-6.533 5.3836-3.26 0-6.5199-1.8353-6.5199-5.3836v-8.0073c0-3.6842 3.1919-5.3835 6.5879-5.3835zm18.071-10.2372c0-7.12363 5.843-10.6174844 11.944-10.6174844 5.843 0 11.822 3.4938544 11.822 10.6174844v23.5597c0 7.3276-5.979 10.8215-11.822 10.8215-6.101 0-11.944-3.4939-11.944-10.8215zm5.262 23.5461c0 3.6298 3.287 5.4787 6.695 5.4787 3.22 0 6.561-1.8489 6.561-5.4787v-23.5461c0-3.42586-3.341-5.27474-6.561-5.27474-3.408 0-6.695 1.84888-6.695 5.27474z" fill="#fbfbfd" fill-rule="evenodd"/><path d="m71.4375 70.04h46.5295" stroke="#fff" stroke-linecap="round" stroke-width="1.88635"/><g clip-path="url(#a)" fill="#fff"><path d="m185.558 115.764c1.95 0 3.531-1.581 3.531-3.531s-1.581-3.531-3.531-3.531-3.531 1.581-3.531 3.531 1.581 3.531 3.531 3.531z"/><path d="m180.429 100.404c-1.222-2.8948-5.531-4.6696-11.178-4.6696h-.032c-2.986.0284-5.958.3969-8.86 1.0982-.683.166-1.29.5563-1.724 1.1083-.434.5521-.671 1.234-.671 1.9364v2.5397c3.375-1.406 6.994-2.136 10.651-2.148 4.196 0 6.409 1.007 6.409 2.618v.18c-6.197 0-11.988.129-15.42 1.415-2.298.851-4.145 2.443-4.145 5.324-.003.47.052.937.161 1.394-.588.082-1.181.123-1.775.123-2.535 0-4.626-.765-4.626-3.418v-7.144h8.028v-4.7634h-8.028v-4.3712h-3.568c-.606-.0004-1.189.2279-1.633.6392-.444.4112-.716.9751-.762 1.5786l-.167 2.148h-11.526v-4.3658h-3.547c-.612-.0016-1.201.2285-1.649.6441-.449.4155-.723.9855-.768 1.5952l-.166 2.1319h-3.829v3.1118c-1.815-2.1211-5.617-3.375-10.364-3.375h-.035c-2.93.0327-5.847.3929-8.696 1.074-.726.1764-1.372.5914-1.833 1.1787-.462.5872-.7126 1.3124-.7126 2.0589v2.371c3.3726-1.405 6.9876-2.135 10.6406-2.148 4.199 0 6.409 1.007 6.409 2.618v.18c-6.197 0-11.988.129-15.423 1.415-1.9461.717-3.5759 1.973-4.0269 4.097v-11.9022h-4.1563c-.3819.0023-.7505.1402-1.0402.389-.2896.2489-.4815.5925-.5413.9696l-.1181.8055c-2.5239-2.309-6.2157-3.0581-9.0778-3.0581-3.0152 0-6.9809.8296-9.5585 3.3454v-3.3803c-1.157-.2335-2.3342-.3531-3.5146-.3571-3.1897 0-6.9298.9424-9.0456 3.9683l-.3248-2.991h-2.7924c-.7259 0-1.422.2881-1.9356.8012-.5135.513-.8023 1.2089-.803 1.9347v3.695c-1.9627-5.3704-8.5785-6.5974-13.4006-6.5974-5.1766 0-12.4126 1.4069-13.755 7.8374-1.5331-6.7124-8.8845-6.5245-8.8845-6.5245h-12.53339v-11.4754l-6.08141.0214v29.1535l20.1157-.043c1.1873.035 2.3676-.194 3.4555-.671.9306-.387 1.758-.986 2.4164-1.748.6426-.796 1.111-1.718 1.3747-2.707.1001-.365.1808-.735.2417-1.109 1.576 6.055 8.5918 7.4 13.653 7.4 4.8329 0 11.4378-1.224 13.4005-6.6v6.444h5.8559v-7.303c0-5.37 2.0835-8.653 8.6563-8.653.9254.017 1.8478.111 2.7575.282-.929 1.388-1.4983 3.146-1.4983 5.348 0 7.905 7.338 10.069 12.2031 10.069 2.8622 0 6.554-.747 9.0779-3.059v.213c0 4.18-3.4905 5.743-8.6885 5.743-2.9331-.023-5.8378-.577-8.5731-1.635v5.01c2.8461.942 5.4639 1.592 8.4764 1.592 10.329 0 14.641-4.766 14.641-10.117v-2.631c.7653 3.606 4.9703 4.833 9.2793 4.833 4.704 0 8.737-1.464 10.168-3.303l.319 3.512h5.531v-12.053c0-1.611-.086-2.532-.325-3.27h2.884v7.115c0 6.514 4.833 8.299 10.055 8.299 1.68-.041 3.346-.312 4.951-.805v-4.774c-1.365.491-2.805.738-4.255.73-2.535 0-4.627-.765-4.627-3.418v-7.144h11.546v7.112c0 6.514 4.833 8.299 10.052 8.299 1.68-.04 3.346-.311 4.951-.805v-.961c1.78 1.074 4.253 1.479 6.764 1.479 4.698 0 8.734-1.463 10.165-3.302l.327 3.509h5.531v-12.064c-.002-1.879-.118-2.814-.453-3.624zm-158.9494 7.687c-.1265.365-.3593.684-.6685.915-.2969.197-.6404.313-.9962.336-.4017.034-.805.047-1.2082.04l-12.53603.043v-6.175l12.54673-.027c.4033-.008.8066.006 1.2083.043.3552.023.6985.137.9961.333.3045.232.5333.55.6578.913.1988.574.2898 1.18.2685 1.788.0211.608-.07 1.215-.2685 1.791zm19.7666 3.614c-3.8905 0-8.1193-1.367-8.1193-5.435s4.2288-5.431 8.1193-5.431 8.1166 1.363 8.1166 5.431-4.218 5.435-8.1058 5.435zm42.7525-.427c-3.6945 0-7.7112-1.37-7.7112-5.435s4.0274-5.434 7.7112-5.434c3.6837 0 7.7112 1.74 7.7112 5.445s-4.0194 5.424-7.7112 5.424zm23.1743.145c-1.19 0-3.531-.269-3.531-1.837.015-.309.11-.61.275-.872s.395-.478.667-.626c2.116-1.286 8.818-1.286 11.178-1.286h1.251c0 2.4-3.92 4.631-9.84 4.631zm58.008 0c-1.19 0-3.531-.269-3.531-1.837.015-.31.11-.611.276-.873.165-.263.396-.478.669-.625 2.113-1.286 8.815-1.286 11.175-1.286h1.251c0 2.4-3.92 4.631-9.84 4.631z"/></g></svg>

<svg width="190" height="124" viewBox="0 0 190 124" fill="none" xmlns="http://www.w3.org/2000/svg">
<path fill-rule="evenodd" clip-rule="evenodd" d="M43.457 11.542V13.9346C43.457 16.8983 45.8783 21.0447 49.9769 22.4585C49.9769 22.4585 50.0074 22.4704 50.0641 22.4925C50.0074 22.5147 49.9769 22.5265 49.9769 22.5265C45.8783 23.9404 43.457 28.1004 43.457 31.0504V33.4431C43.457 41.1921 49.8281 44.9851 56.064 44.9851C59.8195 44.9851 63.4745 43.4563 65.8777 40.4719C68.2807 43.4651 71.941 44.9984 75.7021 44.9984C81.938 44.9984 88.3091 41.1919 88.3091 33.4565V31.0638C88.3091 28.1137 85.8878 23.9537 81.8027 22.5399C81.8014 22.5386 81.7578 22.5209 81.6786 22.4894C81.7521 22.4606 81.7919 22.445 81.7919 22.445C85.8905 21.0311 88.2982 16.8847 88.2982 13.921V11.542C88.3118 3.80653 81.9407 0 75.7048 0C71.9327 0 68.2866 1.53158 65.8844 4.52146C63.4822 1.53158 59.8361 0 56.064 0C49.8281 0 43.457 3.80653 43.457 11.542ZM68.6844 13.3772C68.6844 13.3772 68.6908 13.1973 68.6844 12.884V12.6567C69.0091 8.00731 72.3772 5.77777 75.7725 5.77777C79.2083 5.77777 82.7117 7.74901 82.7117 11.542V13.9346C82.7117 17.0342 79.5735 19.4405 75.4208 19.9843C75.4208 19.9843 75.4207 19.9892 75.4206 19.9987C75.4198 19.9984 75.4189 19.998 75.4181 19.9977C75.3892 19.9977 75.3911 21.4207 75.3992 22.7489C75.394 23.8667 75.3954 24.9137 75.4179 24.9836C75.418 24.9947 75.4181 25.0005 75.4181 25.0005C79.5572 25.5579 82.709 27.9506 82.709 31.0502V33.4429C82.709 37.2494 79.2056 39.2207 75.7698 39.2207C72.4213 39.2207 69.0729 37.0521 68.6698 32.5325C68.6967 31.9584 68.6844 31.6078 68.6844 31.6078V13.3772ZM63.0978 12.4773C62.712 7.94995 59.3476 5.77777 55.9963 5.77777C52.5605 5.77777 49.0571 7.73542 49.0571 11.542V13.9482C49.0571 17.0478 52.1953 19.4541 56.348 19.9979C56.3751 19.9911 56.3751 21.2469 56.3683 22.5019C56.3751 23.7586 56.3751 25.0144 56.348 25.0008C52.1953 25.5446 49.0571 27.9508 49.0571 31.0504V33.4431C49.0571 37.2496 52.5605 39.2209 55.9963 39.2209C59.3916 39.2209 62.7597 37.0185 63.0844 32.3691V32.2276C63.0738 31.8449 63.0817 31.6212 63.0817 31.6212L63.0844 31.6215V13.3772V12.8878C63.0866 12.7693 63.0908 12.6317 63.0978 12.4773ZM103.989 0.0277328C97.9154 0.0277328 92.3694 3.30407 92.3694 10.5229V34.2458C92.3694 41.451 98.1047 44.9312 104.111 44.9312C109.859 44.9312 115.798 41.4646 115.798 34.2458V26.0481C115.798 18.9652 110.116 15.6889 104.111 15.6889C102.095 15.6889 98.5646 16.9396 97.4554 19.5634L97.5231 10.5093C97.5231 7.02904 100.661 5.26172 103.989 5.26172C105.95 5.26172 108.033 5.92786 110.319 8.08943L111.293 7.1106H111.361C111.407 7.06721 111.449 7.02665 111.488 6.98907C111.62 6.86182 111.716 6.76883 111.821 6.71636L111.821 6.7163C111.882 6.65506 111.987 6.54973 112.106 6.47976C112.1 6.48683 112.111 6.48086 112.146 6.45806C112.132 6.46479 112.119 6.47207 112.106 6.47976C112.127 6.45447 112.37 6.26217 112.606 6.07627L112.606 6.07617L112.608 6.07495C112.698 6.00351 112.788 5.93307 112.862 5.87348L112.876 5.86259C113.209 5.5946 113.534 5.33366 114.175 4.62276C110.455 0.748255 107.384 0.0277328 103.989 0.0277328ZM104.111 20.8957C107.438 20.8957 110.576 22.595 110.576 26.0753V34.2865C110.441 37.8348 107.181 39.6701 104.043 39.6701C100.783 39.6701 97.5231 37.8348 97.5231 34.2865V26.2792C97.5231 22.595 100.715 20.8957 104.111 20.8957ZM122.182 10.6585C122.182 3.53487 128.025 0.0410156 134.126 0.0410156C139.969 0.0410156 145.948 3.53487 145.948 10.6585V34.2182C145.948 41.5458 139.969 45.0397 134.126 45.0397C128.025 45.0397 122.182 41.5458 122.182 34.2182V10.6585ZM127.444 34.2046C127.444 37.8344 130.731 39.6833 134.139 39.6833C137.359 39.6833 140.7 37.8344 140.7 34.2046V10.6585C140.7 7.23264 137.359 5.38376 134.139 5.38376C130.731 5.38376 127.444 7.23264 127.444 10.6585V34.2046Z" fill="#FBFBFD"/>
<path d="M71.4375 70.04H117.967" stroke="white" stroke-width="1.88635" stroke-linecap="round"/>
<g clip-path="url(#clip0_1854_104260)">
<path d="M185.558 115.764C187.508 115.764 189.089 114.183 189.089 112.233C189.089 110.283 187.508 108.702 185.558 108.702C183.608 108.702 182.027 110.283 182.027 112.233C182.027 114.183 183.608 115.764 185.558 115.764Z" fill="white"/>
<path d="M180.429 100.404C179.207 97.5092 174.898 95.7344 169.251 95.7344H169.219C166.233 95.7628 163.261 96.1313 160.359 96.8326C159.676 96.9986 159.069 97.3889 158.635 97.9409C158.201 98.493 157.964 99.1749 157.964 99.8773V102.417C161.339 101.011 164.958 100.281 168.615 100.269C172.811 100.269 175.024 101.276 175.024 102.887V103.067C168.827 103.067 163.036 103.196 159.604 104.482C157.306 105.333 155.459 106.925 155.459 109.806C155.456 110.276 155.511 110.743 155.62 111.2C155.032 111.282 154.439 111.323 153.845 111.323C151.31 111.323 149.219 110.558 149.219 107.905V100.761H157.247V95.9976H149.219V91.6264H145.651C145.045 91.626 144.462 91.8543 144.018 92.2656C143.574 92.6768 143.302 93.2407 143.256 93.8442L143.089 95.9922H131.563V91.6264H128.016C127.404 91.6248 126.815 91.8549 126.367 92.2705C125.918 92.686 125.644 93.256 125.599 93.8657L125.433 95.9976H121.604V99.1094C119.789 96.9883 115.987 95.7344 111.24 95.7344H111.205C108.275 95.7671 105.358 96.1273 102.509 96.8084C101.783 96.9848 101.137 97.3998 100.676 97.9871C100.214 98.5743 99.9634 99.2995 99.9634 100.046V102.417C103.336 101.012 106.951 100.282 110.604 100.269C114.803 100.269 117.013 101.276 117.013 102.887V103.067C110.816 103.067 105.025 103.196 101.59 104.482C99.6439 105.199 98.0141 106.455 97.5631 108.579V96.6768H93.4068C93.0249 96.6791 92.6563 96.817 92.3666 97.0658C92.077 97.3147 91.8851 97.6583 91.8253 98.0354L91.7072 98.8409C89.1833 96.5319 85.4915 95.7828 82.6294 95.7828C79.6142 95.7828 75.6485 96.6124 73.0709 99.1282V95.7479C71.9139 95.5144 70.7367 95.3948 69.5563 95.3908C66.3666 95.3908 62.6265 96.3332 60.5107 99.3591L60.1859 96.3681H57.3935C56.6676 96.3681 55.9715 96.6562 55.4579 97.1693C54.9444 97.6823 54.6556 98.3782 54.6549 99.104V102.799C52.6922 97.4286 46.0764 96.2016 41.2543 96.2016C36.0777 96.2016 28.8417 97.6085 27.4993 104.039C25.9662 97.3266 18.6148 97.5145 18.6148 97.5145H6.08141V86.0391L0 86.0605V115.214L20.1157 115.171C21.303 115.206 22.4833 114.977 23.5712 114.5C24.5018 114.113 25.3292 113.514 25.9876 112.752C26.6302 111.956 27.0986 111.034 27.3623 110.045C27.4624 109.68 27.5431 109.31 27.604 108.936C29.18 114.991 36.1958 116.336 41.257 116.336C46.0899 116.336 52.6948 115.112 54.6575 109.736V116.18H60.5134V108.877C60.5134 103.507 62.5969 100.224 69.1697 100.224C70.0951 100.241 71.0175 100.335 71.9272 100.506C70.9982 101.894 70.4289 103.652 70.4289 105.854C70.4289 113.759 77.7669 115.923 82.632 115.923C85.4942 115.923 89.186 115.176 91.7099 112.864V113.077C91.7099 117.257 88.2194 118.82 83.0214 118.82C80.0883 118.797 77.1836 118.243 74.4483 117.185V122.195C77.2944 123.137 79.9122 123.787 82.9247 123.787C93.2537 123.787 97.5657 119.021 97.5657 113.67V111.039C98.331 114.645 102.536 115.872 106.845 115.872C111.549 115.872 115.582 114.408 117.013 112.569L117.332 116.081H122.863V104.028C122.863 102.417 122.777 101.496 122.538 100.758H125.422V107.873C125.422 114.387 130.255 116.172 135.477 116.172C137.157 116.131 138.823 115.86 140.428 115.367V110.593C139.063 111.084 137.623 111.331 136.173 111.323C133.638 111.323 131.546 110.558 131.546 107.905V100.761H143.092V107.873C143.092 114.387 147.925 116.172 153.144 116.172C154.824 116.132 156.49 115.861 158.095 115.367V114.406C159.875 115.48 162.348 115.885 164.859 115.885C169.557 115.885 173.593 114.422 175.024 112.583L175.351 116.092H180.882V104.028C180.88 102.149 180.764 101.214 180.429 100.404ZM21.4796 108.091C21.3531 108.456 21.1203 108.775 20.8111 109.006C20.5142 109.203 20.1707 109.319 19.8149 109.342C19.4132 109.376 19.0099 109.389 18.6067 109.382L6.07067 109.425V103.25L18.6174 103.223C19.0207 103.215 19.424 103.229 19.8257 103.266C20.1809 103.289 20.5242 103.403 20.8218 103.599C21.1263 103.831 21.3551 104.149 21.4796 104.512C21.6784 105.086 21.7694 105.692 21.7481 106.3C21.7692 106.908 21.6781 107.515 21.4796 108.091ZM41.2462 111.705C37.3557 111.705 33.1269 110.338 33.1269 106.27C33.1269 102.202 37.3557 100.839 41.2462 100.839C45.1367 100.839 49.3628 102.202 49.3628 106.27C49.3628 110.338 45.1448 111.705 41.257 111.705H41.2462ZM83.9987 111.278C80.3042 111.278 76.2875 109.908 76.2875 105.843C76.2875 101.778 80.3149 100.409 83.9987 100.409C87.6824 100.409 91.7099 102.149 91.7099 105.854C91.7099 109.559 87.6905 111.278 83.9987 111.278ZM107.173 111.423C105.983 111.423 103.642 111.154 103.642 109.586C103.657 109.277 103.752 108.976 103.917 108.714C104.082 108.452 104.312 108.236 104.584 108.088C106.7 106.802 113.402 106.802 115.762 106.802H117.013C117.013 109.202 113.093 111.433 107.173 111.433V111.423ZM165.181 111.423C163.991 111.423 161.65 111.154 161.65 109.586C161.665 109.276 161.76 108.975 161.926 108.713C162.091 108.45 162.322 108.235 162.595 108.088C164.708 106.802 171.41 106.802 173.77 106.802H175.021C175.021 109.202 171.101 111.433 165.181 111.433V111.423Z" fill="white"/>
</g>
<defs>
<clipPath id="clip0_1854_104260">
<rect width="189.09" height="37.7397" fill="white" transform="translate(0 86.04)"/>
</clipPath>
</defs>
</svg>
